X: 20100
T: Jimmy Ward's
R: jig
M: 6/8
K: Dmajor
|:d>cd ede|fdB AFA|d>cd ede|fdB A2A|
d>cd ede|fed def|g>fe ded|1 BAA A2B:|2 BAA Aef||
|:g3 f3|ede fed|g>ag fed|BAA Aef|
g>bg faf|ede fef|g>fe ded|1 BAA Aef:|2 BAA A3||

